X:157
T: IST DIE SCHWARZE KOECHIN DA
N: K2267A
O: Europa, Mitteleuropa, Deutschland, Dresden
R: Kinder - Lied, Reigen, Tanz - Spiel
M: 2/4
L: 1/8
K: D
 | AABB | AGF2
A2B2 | A2z
D | AGFD | AGF
D | AABB | AGF2
AzBz | Az3

